!!!ONB: MCCC : IJH0409_04 : Extracted Monophonic Melody
!!!COM: Haydn, Joseph
!!!OPR: String Quartet in B-flat major
!!!OMV: 4
!!!SCT: Hob.III:40 ; Op.33 No.4
!!!ODT: 1781///
**kern
*thru
*k[b-e-]
*B-:
*clefG
*M2/4
16d
16f
=1
8b-
8b-
8b-
16ee-
16dd
=2
8cc
8cc
8cc
16ff
16ee-
=3
8dd
8bb-
8gg
8ee-
=4
4dd
8cc
16ee-
16cc
=5
8a
8ccc
8ccc
16a
16cc
=6
8ee-
8e-
8e-
16d
16f
=7
8b-
8dd
8cc
16b-
16a
=8
4b-
8r
16b-
16dd
=9
8gg
8gg
8gg
16bb-
16gg
=10
8ff#
8dd
8dd
16b-
16dd
=11
8gg
8gg
8gg
16bb-
16gg
=12
8ee
8cc
8cc
16a
16cc
=13
8ff
8ff
8ff
16gg
16ee
=14
8aa
8ff
8ff
16a
16cc
=15
8ff
8ff
8gg
8gg
=16
4.aa
16a
16cc
=17
8ff
8ff
8ff
16gg
16ee
=18
8aa
8ff
8ff
16a
16cc
=19
8ff
8ff
8gg
8gg
=20
4.aa
16ff
16aa
=21
8ccc
8ccc
8ccc
16ff
16bb-
=22
8ddd
8ddd
8ddd
8bb-
=23
16aa
16ccc
8ff
16gg
16bb-
8ee
=24
4.ff
16aa-
16ff
=25
8b
8b
8b
16e-
16g
=26
8cc
8cc
8cc
16e-
16g
=27
8cc
8cc
8cc
16ee-
16cc
=28
4b-
8a
16d
16f
=29
8b-
8b-
8b-
16ee-
16dd
=30
8cc
8cc
8cc
16ff
16ee-
=31
8dd
8bb-
8gg
8ee-
=32
4dd
8cc
16ee-
16cc
=33
8a
8ccc
8ccc
16a
16cc
=34
8ee-
8e-
8e-
16d
16f
=35
8b-
8dd
8cc
16b-
16a
=36
4b-
4r
=37
8r
8b-
8gg
8ee-
=38
8ee-
8dd
8ff
8r
=39
8r
8dd
8bb-
8dd
=40
8ff
8ee-
8gg
8r
=41
8r
8cc
8ccc
8aa-
=42
8gg
8ff
8bb-
8dd
=43
8ee-
8b-
8g
8e-
=44
4b-
8r
16b-
16dd
=45
8ff
4r
16b-
16ee-
=46
8gg
4r
16aa
16ccc
=47
8eee-
4r
16dd
16ff
=48
8bb-
4.r
=49
8dd
4.r
=50
8ee-
4.r
=51
8a
4.r
=52
8b-
4r
16g
16b-
=53
2ee-
=54
4.ff
16b-
16dd
=55
2ff
=56
4.gg
16ee-
16gg
=57
4.bb-
16ee-
16aa-
=58
4.ccc
8aa-
=59
8gg
8bb-
8dd
8ff
=60
4ee-
8r
16gg
16ee-
=61
2cc
=62
4b
8r
16dd
16b
=63
2f
=64
4e-
8r
16ff#
16gg
=65
2b-
=66
4a
8r
16cc
16a
=67
2e-
=68
4.r
16d
16f
=69
8b-
8b-
8b-
16ee-
16dd
=70
8cc
8cc
8cc
16ff
16ee-
=71
8dd
8bb-
8gg
8ee-
=72
4dd
8cc
16ee-
16cc
=73
8a
8ccc
8ccc
16a
16cc
=74
8ee-
8e-
8e-
16d
16f
=75
8b-
8dd
8cc
16b-
16a
=76
4b-
8r
16d
16f
=77
16b-
16a
16b-
16a
8b-
16ee-
16dd
=78
16cc
16b
16cc
16b
8cc
16ff
16ee-
=79
16dd
16ee-
16ff
16gg
16aa
16bb-
16gg
16ee-
=80
4dd
8cc
16ee-
16cc
=81
8a
16bb
16ccc
8ccc
16a
16cc
=82
16ee-
16cc
16a
16f
8e-
16d
16f
=83
8b-
8dd
8cc
16b-
16a
=84
4b-
8r
16b-
16dd
=85
16gg
16ff#
16gg
16ff#
8gg
16bb-
16gg
=86
8ff#
8dd
8dd
16b-
16dd
=87
16gg
16ff#
16gg
16ff#
16gg
16aa
16bb-
16gg
=88
16ff
16ee
16gg
16ee
8cc
16a
16cc
=89
16ff
16gg
16ee
16gg
8ff
16gg
16ee
=90
8aa
8ff
8ff
16a
16cc
=91
8ff
8ff
8gg
8gg
=92
4.aa
16a
16cc
=93
16ff
16gg
16ee
16gg
16ff
16aa
16gg
16bb-
=94
8aa
8ff
8ff
16a
16cc
=95
8ff
8ff
8gg
8gg
=96
32aa
32gg#
32aa
32gg#
32aa
32gg#
32aa
32gg#
8aa
16ff
16aa
=97
16ccc
16bb
16ccc
16bb
8ccc
16ff
16bb-
=98
16ddd
16ccc#
16ddd
16ccc#
8ddd
8bb-
=99
16aa
16ccc
8ff
16gg
16bb-
8ee
=100
4ff
8r
16aa-
16gg
=101
16ff
16ee-
16dd
16cc
16b
16a-
16g
16f
=102
8e-
8cc
8cc
16c
16d
=103
16e-
16f
16g
16a
16b
16cc
16dd
16ee-
=104
4b-
8a
16d
16f
=105
16b-
16a
16b-
16a
8b-
16ee-
16dd
=106
16cc
16b
16cc
16b
8cc
16ff
16ee-
=107
16dd
16ee-
16ff
16gg
16aa
16bb-
16gg
16ee-
=108
4dd
8cc
16ee-
16cc
=109
8a
16bb
16ccc
8ccc
16a
16cc
=110
16ee-
16cc
16a
16f
8e-
16d
16f
=111
8b-
8dd
8cc
16b-
16a
=112
4b-
8r
8dd
=113
4.dd
8ff#
=114
8gg
8bb-
8r
8dd
=115
4.dd
8ff#
=116
8gg
8bb-
8r
8gg
=117
4.gg
8bb
=118
8ccc
8eee-
8r
8gg
=119
4.gg
8bb
=120
8ccc
8eee-
8r
8ccc
=121
8ccc
8fff
8r
8eee-
=122
8ddd
8bbb-
8r
8b-
=123
8cc
8gg
8a
8cc
=124
4b-
8r
8dd
=125
4b-
8r
8ff
=126
4.ff
8aa
=127
8bb-
8ddd
8r
8ff
=128
4.ff
8aa
=129
8bb-
8ddd
8r
8ff#
=130
8gg
8bb-
8r
8dd
=131
8ee-
8gg
8r
8b
=132
8cc
8ee-
8r
8ee-
=133
4ee-
8dd
8dd
=134
8cc
8a
8b-
8g
=135
4dd
8r
8dd
=136
4dd
8r
8ff#
=137
8gg
8bb-
8r
8dd
=138
4.dd
8ff#
=139
8gg
8bb-
8r
8gg
=140
4.gg
8bb
=141
8ccc
8eee-
8r
8gg
=142
4.gg
8b
=143
8cc
8ee-
8r
8ee-
=144
4ee-
4dd
=145
4cc
4b-
=146
8a
8a
8d
8d
=147
4g
8r
8ff
=148
4g
8r
16d
16f
=149
8b-
8b-
8b-
16ee-
16dd
=150
8cc
8cc
8cc
16ff
16ee-
=151
8dd
8bb-
8gg
8ee-
=152
4dd
8cc
16ee-
16cc
=153
8a
8ccc
8ccc
16a
16cc
=154
8ee-
8e-
8e-
16d
16f
=155
8b-
8dd
8cc
16b-
16a
=156
4b-
8r
16d
16f
=157
8b-
8bb-
8B-
16ee-
16dd
=158
8cc
8ccc
8f
8ee-
=159
8dd
8bb-
8e-
8gg
=160
4dd
8cc
16ee-
16cc
=161
8a
8ccc
8aa
8eee-
=162
8e-
8cc
8d
8bb-
=163
8e-
8gg
8f
8a
=164
4B-
8r
16b-
16dd
=165
8gg
8gg
8gg
16bb-
16gg
=166
8ff#
8dd
8dd
16b-
16dd
=167
8gg
8g
8bb-
8gg
=168
8ee
8ccc
8cc
16a
16cc
=169
8ff
8f
8e
8gg
=170
8f
8aa
8ff
16a
16cc
=171
8ff
8ff
8gg
8gg
=172
8gg#
8aa
8aa
16a
16cc
=173
8ff
8f
8gg
8e
=174
8aa
8f
8f
16a
16cc
=175
8ff
8ff
8gg
8gg
=176
32aa
32gg#
32aa
32gg#
32aa
32gg#
32aa
32gg#
8aa
16ff
16aa
=177
8ccc
8ccc
8ccc
16ff
16bb-
=178
8ddd
8b-
8g
8bb-
=179
16aa
16ccc
8ff
16gg
16bb-
8ee
=180
4.ff
8aa-
=181
8b
8dd
8G
8f
=182
8e-
8bb
8ccc
8b
=183
8cc
8dd
8ee-
8gg
=184
4b-
8a
16d
16f
=185
8b-
8bb-
8B-
16ee-
16dd
=186
8cc
8ccc
8f
8ee-
=187
8dd
8bb-
8e-
8gg
=188
4dd
8cc
16ee-
16cc
=189
8a
8ccc
8aa
8eee-
=190
8e-
8cc
8d
8bb-
=191
8e-
8gg
8f
8a
=192
4B-
8r
16d
16f
=193
8b-
8b-
8b-
16ee-
16dd
=194
8cc
8cc
8cc
16ff
16ee-
=195
8dd
8bb-
8gg
8ee-
=196
4dd
8cc
16ee-
16cc
=197
8a
8ccc
8ccc
16a
16cc
=198
8ee-
8e-
8e-
8r
=199
4.r
16a
16cc
=200
8ee-
8e-
8e-
8r
=201
4.r
16dd
16ee-
=202
2gg[
=203
4gg]
4e-
=204
4e-
4r
=205
4r
4e-
=206
4e-
4r
=207
4.r
8f
=208
8b-
8b-
8b-
8dd
=209
8cc
8cc
8cc
8ff
=210
8dd
8bb-
8gg
8ee-
=211
4dd
8cc
8cc
=212
8ee-
8ee-
8ee-
8cc
=213
8dd
8dd
8dd
8b-
=214
8cc
8cc
8a
8a
=215
4b-
4aa
=216
4bb-
4r
==
*-
